svg/SJJB-OpenStreetMapIcons/amenity/public_building.svg

<?xml version="1.0" encoding="UTF-8" standalone="no"?>
<!-- Created with Inkscape (http://www.inkscape.org/) -->

<svg
   xmlns:dc="http://purl.org/dc/elements/1.1/"
   xmlns:cc="http://creativecommons.org/ns#"
   xmlns:rdf="http://www.w3.org/1999/02/22-rdf-syntax-ns#"
   xmlns:svg="http://www.w3.org/2000/svg"
   xmlns="http://www.w3.org/2000/svg"
   xmlns:sodipodi="http://sodipodi.sourceforge.net/DTD/sodipodi-0.dtd"
   xmlns:inkscape="http://www.inkscape.org/namespaces/inkscape"
   version="1.0"
   width="580"
   height="580"
   id="svg2"
   sodipodi:version="0.32"
   inkscape:version="0.48.0 r9654"
   sodipodi:docname="amenity_public_building.svg"
   inkscape:output_extension="org.inkscape.output.svg.inkscape">
  <metadata
     id="metadata2975">
    <rdf:RDF>
      <cc:Work
         rdf:about="">
        <dc:format>image/svg+xml</dc:format>
        <dc:type
           rdf:resource="http://purl.org/dc/dcmitype/StillImage" />
        <cc:license
           rdf:resource="http://web.resource.org/cc/PublicDomain" />
        <dc:language>en</dc:language>
        <dc:title />
      </cc:Work>
    </rdf:RDF>
  </metadata>
  <sodipodi:namedview
     inkscape:window-height="1002"
     inkscape:window-width="638"
     inkscape:pageshadow="2"
     inkscape:pageopacity="0.0"
     guidetolerance="10.0"
     gridtolerance="10.0"
     objecttolerance="10.0"
     borderopacity="1.0"
     bordercolor="#666666"
     pagecolor="#ffffff"
     id="base"
     inkscape:zoom="0.46083856"
     inkscape:cx="217.41883"
     inkscape:cy="403.69123"
     inkscape:window-x="0"
     inkscape:window-y="24"
     inkscape:current-layer="svg2"
     showgrid="false"
     inkscape:window-maximized="0" />
  <defs
     id="defs4">
    <inkscape:perspective
       sodipodi:type="inkscape:persp3d"
       inkscape:vp_x="0 : 290 : 1"
       inkscape:vp_y="0 : 1000 : 0"
       inkscape:vp_z="580 : 290 : 1"
       inkscape:persp3d-origin="290 : 193.33333 : 1"
       id="perspective2441" />
    <inkscape:perspective
       id="perspective3452"
       inkscape:persp3d-origin="30 : 20 : 1"
       inkscape:vp_z="60 : 30 : 1"
       inkscape:vp_y="0 : 1000 : 0"
       inkscape:vp_x="0 : 30 : 1"
       sodipodi:type="inkscape:persp3d" />
    <symbol
       viewBox="244.5 110 489 219.9"
       id="symbol-university">
      <path
         id="path4460"
         d="M79,43l57,119c0,0,21-96,104-96s124,106,124,106l43-133l82-17L0,17L79,43z" />
      <path
         id="path4462"
         d="M94,176l-21,39"
         stroke-width="20"
         stroke="#000000"
         fill="none" />
      <path
         id="path4464"
         d="M300,19c0,10.5-22.6,19-50.5,19S199,29.5,199,19s22.6-19,50.5-19S300,8.5,300,19z" />
      <path
         id="path4466"
         d="M112,216l-16-38L64,88c0,0-9-8-4-35s16-24,16-24"
         stroke-width="20"
         stroke="#000000"
         ill="none" />
    </symbol>
    <inkscape:perspective
       id="perspective4471"
       inkscape:persp3d-origin="372.04724 : 350.78739 : 1"
       inkscape:vp_z="744.09448 : 526.18109 : 1"
       inkscape:vp_y="0 : 1000 : 0"
       inkscape:vp_x="0 : 526.18109 : 1"
       sodipodi:type="inkscape:persp3d" />
    <inkscape:perspective
       id="perspective4668"
       inkscape:persp3d-origin="6 : 4 : 1"
       inkscape:vp_z="12 : 6 : 1"
       inkscape:vp_y="0 : 1000 : 0"
       inkscape:vp_x="0 : 6 : 1"
       sodipodi:type="inkscape:persp3d" />
    <inkscape:perspective
       id="perspective4904"
       inkscape:persp3d-origin="16 : 10.666667 : 1"
       inkscape:vp_z="32 : 16 : 1"
       inkscape:vp_y="0 : 1000 : 0"
       inkscape:vp_x="0 : 16 : 1"
       sodipodi:type="inkscape:persp3d" />
  </defs>
  <g
     id="g1327">
    <path
       d="M 66.275,1.768 C 24.94,1.768 1.704,23.139 1.704,66.804 L 1.704,516.927 C 1.704,557.771 22.599,579.156 63.896,579.156 L 515.92,579.156 C 557.227,579.156 578.149,558.841 578.149,516.927 L 578.149,66.804 C 578.149,24.203 557.227,1.768 514.628,1.768 C 514.624,1.768 66.133,1.625 66.275,1.768 z "
       style="fill:#111;stroke:#eee;stroke-width:3.40799999"
       id="path1329" />
  </g>
  <g
     id="layer3"
     inkscape:label="Layout"
     style="display:none;stroke:#757575;stroke-opacity:1"
     transform="matrix(48.14969,0,0,48.14969,-536.27327,-33.306752)">
    <rect
       style="fill:none;stroke:#757575;stroke-width:0.10000000000000001;stroke-miterlimit:4;stroke-dasharray:none;stroke-opacity:1;display:inline"
       id="rect4134"
       width="10"
       height="10"
       x="1"
       y="1" />
    <rect
       style="fill:none;stroke:#757575;stroke-width:0.10000000000000001;stroke-miterlimit:4;stroke-dasharray:none;stroke-opacity:1;display:inline"
       id="rect4136"
       width="8"
       height="8"
       x="2"
       y="2" />
  </g>
  <g
     id="g4372"
     transform="translate(-166.49217,52.019299)" />
  <path
     style="font-size:12px;opacity:0.2;fill:#ffffff;fill-opacity:1;fill-rule:evenodd;stroke:#ffffff;stroke-width:1.24141979;stroke-opacity:1"
     d="M 286.94406,44.001595 L 34.884618,235.90902 L 85.296174,235.90902 L 85.296174,543.77001 L 236.53218,543.77001 L 340.81297,543.77001 L 488.59196,543.77001 L 488.59196,235.90902 L 539.00386,235.90902 L 286.94406,44.001595 L 286.94406,44.001595 L 286.94406,44.001595 z"
     id="path645"
     sodipodi:nodetypes="cccccccccccc" />
  <path
     sodipodi:nodetypes="cccccccccccc"
     id="path3198"
     d="M 286.94406,34.001595 L 34.884618,225.90902 L 85.296174,225.90902 L 85.296174,543.77001 L 236.53218,543.77001 L 340.81297,543.77001 L 488.59196,543.77001 L 488.59196,225.90902 L 539.00386,225.90902 L 286.94406,34.001595 L 286.94406,34.001595 L 286.94406,34.001595 z"
     style="font-size:12px;opacity:1;fill:none;fill-opacity:1;fill-rule:evenodd;stroke:#ffffff;stroke-width:20;stroke-linejoin:round;stroke-miterlimit:4;stroke-dasharray:none;stroke-opacity:1" />
  <g
     id="g8776"
     transform="matrix(0.87658488,0,0,0.87658488,99.682021,266.47073)">
    <path
       inkscape:connector-curvature="0"
       sodipodi:nodetypes="ccssssssscssccccccccccc"
       id="flowRoot3192"
       d="m 117.84375,42.625 c -10.57662,3.9e-4 -19.790529,3.83221 -27.625,11.46875 -7.83376,7.63729 -11.749626,16.915957 -11.75,27.875 3.7e-4,10.97169 3.916241,20.3009 11.75,27.9375 7.83447,7.63723 17.04838,11.43781 27.625,11.4375 0.38998,1e-5 0.77047,-0.0216 1.15625,-0.0312 0.39015,0.01 0.79305,0.0313 1.1875,0.0312 10.57662,3.1e-4 19.75928,-3.80027 27.59375,-11.4375 7.83376,-7.6366 11.74963,-16.96581 11.75,-27.9375 -3.6e-4,-10.959043 -3.91624,-20.23771 -11.75,-27.875 -7.83447,-7.63654 -17.01713,-11.46836 -27.59375,-11.46875 -0.39434,1.4e-5 -0.79747,0.02135 -1.1875,0.03125 -0.38566,-0.0097 -0.76638,-0.03124 -1.15625,-0.03125 z M 87.875,130.15625 c -11.35344,2.9e-4 -17.609638,5.8771 -18.78125,17.625 l 0,138.03125 0,2.96875 L 119,287.3125 l 49.9375,1.46875 0,-2.96875 0,-138.03125 c -1.1716,-11.7479 -7.42781,-17.62471 -18.78125,-17.625 l -62.28125,0 z"
       style="font-size:40px;font-style:normal;font-variant:normal;font-weight:normal;font-stretch:normal;text-align:start;line-height:125%;writing-mode:lr-tb;text-anchor:start;fill:#ffffff;fill-opacity:1;stroke:none;font-family:NPSPICT3;-inkscape-font-specification:NPSPICT3" />
    <path
       inkscape:connector-curvature="0"
       sodipodi:nodetypes="cc"
       style="fill:#ffffff;fill-rule:evenodd;stroke:#ffffff;stroke-width:67.0968399;stroke-linecap:round;stroke-linejoin:miter;stroke-miterlimit:4;stroke-opacity:1;stroke-dasharray:none"
       d="m 79.060779,243.05446 -0.7002,-78.24513"
       id="path3239" />
    <path
       inkscape:connector-curvature="0"
       id="path8774"
       d="m 155.06078,243.05446 -0.7002,-78.24513"
       style="fill:#ffffff;fill-rule:evenodd;stroke:#ffffff;stroke-width:67.0968399;stroke-linecap:round;stroke-linejoin:miter;stroke-miterlimit:4;stroke-opacity:1;stroke-dasharray:none"
       sodipodi:nodetypes="cc" />
  </g>
  <g
     transform="matrix(0.87658488,0,0,0.87658488,266.23315,266.47073)"
     id="g8789">
    <path
       inkscape:connector-curvature="0"
       style="font-size:40px;font-style:normal;font-variant:normal;font-weight:normal;font-stretch:normal;text-align:start;line-height:125%;writing-mode:lr-tb;text-anchor:start;fill:#ffffff;fill-opacity:1;stroke:none;font-family:NPSPICT3;-inkscape-font-specification:NPSPICT3"
       d="m 117.84375,42.625 c -10.57662,3.9e-4 -19.790529,3.83221 -27.625,11.46875 -7.83376,7.63729 -11.749626,16.915957 -11.75,27.875 3.7e-4,10.97169 3.916241,20.3009 11.75,27.9375 7.83447,7.63723 17.04838,11.43781 27.625,11.4375 0.38998,1e-5 0.77047,-0.0216 1.15625,-0.0312 0.39015,0.01 0.79305,0.0313 1.1875,0.0312 10.57662,3.1e-4 19.75928,-3.80027 27.59375,-11.4375 7.83376,-7.6366 11.74963,-16.96581 11.75,-27.9375 -3.6e-4,-10.959043 -3.91624,-20.23771 -11.75,-27.875 -7.83447,-7.63654 -17.01713,-11.46836 -27.59375,-11.46875 -0.39434,1.4e-5 -0.79747,0.02135 -1.1875,0.03125 -0.38566,-0.0097 -0.76638,-0.03124 -1.15625,-0.03125 z M 87.875,130.15625 c -11.35344,2.9e-4 -17.609638,5.8771 -18.78125,17.625 l 0,138.03125 0,2.96875 L 119,287.3125 l 49.9375,1.46875 0,-2.96875 0,-138.03125 c -1.1716,-11.7479 -7.42781,-17.62471 -18.78125,-17.625 l -62.28125,0 z"
       id="path8791"
       sodipodi:nodetypes="ccssssssscssccccccccccc" />
    <path
       inkscape:connector-curvature="0"
       id="path8793"
       d="m 79.060779,243.05446 -0.7002,-78.24513"
       style="fill:#ffffff;fill-rule:evenodd;stroke:#ffffff;stroke-width:67.0968399;stroke-linecap:round;stroke-linejoin:miter;stroke-miterlimit:4;stroke-opacity:1;stroke-dasharray:none"
       sodipodi:nodetypes="cc" />
    <path
       inkscape:connector-curvature="0"
       sodipodi:nodetypes="cc"
       style="fill:#ffffff;fill-rule:evenodd;stroke:#ffffff;stroke-width:67.0968399;stroke-linecap:round;stroke-linejoin:miter;stroke-miterlimit:4;stroke-opacity:1;stroke-dasharray:none"
       d="m 155.06078,243.05446 -0.7002,-78.24513"
       id="path8795" />
  </g>
  <g
     id="g7680"
     transform="translate(20,0)">
    <g
       transform="matrix(0.48931467,0,0,0.48931467,107.15615,142.64262)"
       id="g7614">
      <path
         inkscape:connector-curvature="0"
         style="font-size:40px;font-style:normal;font-variant:normal;font-weight:normal;font-stretch:normal;text-align:start;line-height:125%;writing-mode:lr-tb;text-anchor:start;fill:#ffffff;fill-opacity:1;stroke:none;font-family:NPSPICT3;-inkscape-font-specification:NPSPICT3"
         d="m 117.84375,42.625 c -10.57662,3.9e-4 -19.790529,3.83221 -27.625,11.46875 -7.83376,7.63729 -11.749626,16.915957 -11.75,27.875 3.7e-4,10.97169 3.916241,20.3009 11.75,27.9375 7.83447,7.63723 17.04838,11.43781 27.625,11.4375 0.38998,1e-5 0.77047,-0.0216 1.15625,-0.0312 0.39015,0.01 0.79305,0.0313 1.1875,0.0312 10.57662,3.1e-4 19.75928,-3.80027 27.59375,-11.4375 7.83376,-7.6366 11.74963,-16.96581 11.75,-27.9375 -3.6e-4,-10.959043 -3.91624,-20.23771 -11.75,-27.875 -7.83447,-7.63654 -17.01713,-11.46836 -27.59375,-11.46875 -0.39434,1.4e-5 -0.79747,0.02135 -1.1875,0.03125 -0.38566,-0.0097 -0.76638,-0.03124 -1.15625,-0.03125 z M 87.875,130.15625 c -11.35344,2.9e-4 -17.609638,5.8771 -18.78125,17.625 l 0,138.03125 0,2.96875 L 119,287.3125 l 49.9375,1.46875 0,-2.96875 0,-138.03125 c -1.1716,-11.7479 -7.42781,-17.62471 -18.78125,-17.625 l -62.28125,0 z"
         id="path7616"
         sodipodi:nodetypes="ccssssssscssccccccccccc" />
      <path
         inkscape:connector-curvature="0"
         id="path7618"
         d="m 79.060779,243.05446 -0.7002,-78.24513"
         style="fill:#ffffff;fill-rule:evenodd;stroke:#ffffff;stroke-width:67.0968399;stroke-linecap:round;stroke-linejoin:miter;stroke-miterlimit:4;stroke-opacity:1;stroke-dasharray:none"
         sodipodi:nodetypes="cc" />
      <path
         inkscape:connector-curvature="0"
         sodipodi:nodetypes="cc"
         style="fill:#ffffff;fill-rule:evenodd;stroke:#ffffff;stroke-width:67.0968399;stroke-linecap:round;stroke-linejoin:miter;stroke-miterlimit:4;stroke-opacity:1;stroke-dasharray:none"
         d="m 155.06078,243.05446 -0.7002,-78.24513"
         id="path7620" />
    </g>
    <g
       id="g7622"
       transform="matrix(0.48931467,0,0,0.48931467,207.15615,142.64262)">
      <path
         sodipodi:nodetypes="ccssssssscssccccccccccc"
         id="path7624"
         d="m 117.84375,42.625 c -10.57662,3.9e-4 -19.790529,3.83221 -27.625,11.46875 -7.83376,7.63729 -11.749626,16.915957 -11.75,27.875 3.7e-4,10.97169 3.916241,20.3009 11.75,27.9375 7.83447,7.63723 17.04838,11.43781 27.625,11.4375 0.38998,1e-5 0.77047,-0.0216 1.15625,-0.0312 0.39015,0.01 0.79305,0.0313 1.1875,0.0312 10.57662,3.1e-4 19.75928,-3.80027 27.59375,-11.4375 7.83376,-7.6366 11.74963,-16.96581 11.75,-27.9375 -3.6e-4,-10.959043 -3.91624,-20.23771 -11.75,-27.875 -7.83447,-7.63654 -17.01713,-11.46836 -27.59375,-11.46875 -0.39434,1.4e-5 -0.79747,0.02135 -1.1875,0.03125 -0.38566,-0.0097 -0.76638,-0.03124 -1.15625,-0.03125 z M 87.875,130.15625 c -11.35344,2.9e-4 -17.609638,5.8771 -18.78125,17.625 l 0,138.03125 0,2.96875 L 119,287.3125 l 49.9375,1.46875 0,-2.96875 0,-138.03125 c -1.1716,-11.7479 -7.42781,-17.62471 -18.78125,-17.625 l -62.28125,0 z"
         style="font-size:40px;font-style:normal;font-variant:normal;font-weight:normal;font-stretch:normal;text-align:start;line-height:125%;writing-mode:lr-tb;text-anchor:start;fill:#ffffff;fill-opacity:1;stroke:none;font-family:NPSPICT3;-inkscape-font-specification:NPSPICT3"
         inkscape:connector-curvature="0" />
      <path
         sodipodi:nodetypes="cc"
         style="fill:#ffffff;fill-rule:evenodd;stroke:#ffffff;stroke-width:67.0968399;stroke-linecap:round;stroke-linejoin:miter;stroke-miterlimit:4;stroke-opacity:1;stroke-dasharray:none"
         d="m 79.060779,243.05446 -0.7002,-78.24513"
         id="path7626"
         inkscape:connector-curvature="0" />
      <path
         id="path7628"
         d="m 155.06078,243.05446 -0.7002,-78.24513"
         style="fill:#ffffff;fill-rule:evenodd;stroke:#ffffff;stroke-width:67.0968399;stroke-linecap:round;stroke-linejoin:miter;stroke-miterlimit:4;stroke-opacity:1;stroke-dasharray:none"
         sodipodi:nodetypes="cc"
         inkscape:connector-curvature="0" />
    </g>
    <g
       transform="matrix(0.48931467,0,0,0.48931467,307.15615,142.64262)"
       id="g7630">
      <path
         inkscape:connector-curvature="0"
         style="font-size:40px;font-style:normal;font-variant:normal;font-weight:normal;font-stretch:normal;text-align:start;line-height:125%;writing-mode:lr-tb;text-anchor:start;fill:#ffffff;fill-opacity:1;stroke:none;font-family:NPSPICT3;-inkscape-font-specification:NPSPICT3"
         d="m 117.84375,42.625 c -10.57662,3.9e-4 -19.790529,3.83221 -27.625,11.46875 -7.83376,7.63729 -11.749626,16.915957 -11.75,27.875 3.7e-4,10.97169 3.916241,20.3009 11.75,27.9375 7.83447,7.63723 17.04838,11.43781 27.625,11.4375 0.38998,1e-5 0.77047,-0.0216 1.15625,-0.0312 0.39015,0.01 0.79305,0.0313 1.1875,0.0312 10.57662,3.1e-4 19.75928,-3.80027 27.59375,-11.4375 7.83376,-7.6366 11.74963,-16.96581 11.75,-27.9375 -3.6e-4,-10.959043 -3.91624,-20.23771 -11.75,-27.875 -7.83447,-7.63654 -17.01713,-11.46836 -27.59375,-11.46875 -0.39434,1.4e-5 -0.79747,0.02135 -1.1875,0.03125 -0.38566,-0.0097 -0.76638,-0.03124 -1.15625,-0.03125 z M 87.875,130.15625 c -11.35344,2.9e-4 -17.609638,5.8771 -18.78125,17.625 l 0,138.03125 0,2.96875 L 119,287.3125 l 49.9375,1.46875 0,-2.96875 0,-138.03125 c -1.1716,-11.7479 -7.42781,-17.62471 -18.78125,-17.625 l -62.28125,0 z"
         id="path7632"
         sodipodi:nodetypes="ccssssssscssccccccccccc" />
      <path
         inkscape:connector-curvature="0"
         id="path7634"
         d="m 79.060779,243.05446 -0.7002,-78.24513"
         style="fill:#ffffff;fill-rule:evenodd;stroke:#ffffff;stroke-width:67.0968399;stroke-linecap:round;stroke-linejoin:miter;stroke-miterlimit:4;stroke-opacity:1;stroke-dasharray:none"
         sodipodi:nodetypes="cc" />
      <path
         inkscape:connector-curvature="0"
         sodipodi:nodetypes="cc"
         style="fill:#ffffff;fill-rule:evenodd;stroke:#ffffff;stroke-width:67.0968399;stroke-linecap:round;stroke-linejoin:miter;stroke-miterlimit:4;stroke-opacity:1;stroke-dasharray:none"
         d="m 155.06078,243.05446 -0.7002,-78.24513"
         id="path7636" />
    </g>
  </g>
</svg>

<svg xmlns="http://www.w3.org/2000/svg" viewBox="0 0 580 580" xmlns:xlink="http://www.w3.org/1999/xlink"><defs><path id="0" d="m117.84 42.625c-10.577 0-19.791 3.832-27.625 11.469-7.834 7.637-11.75 16.916-11.75 27.875 0 10.972 3.916 20.301 11.75 27.938 7.834 7.637 17.05 11.438 27.625 11.438.39 0 .77-.022 1.156-.031.39.001.793.031 1.188.031 10.577 0 19.759-3.8 27.594-11.438 7.834-7.637 11.75-16.966 11.75-27.938 0-10.959-3.916-20.238-11.75-27.875-7.834-7.637-17.02-11.468-27.594-11.469-.394 0-.797.021-1.188.031-.386-.001-.766-.031-1.156-.031m-29.969 87.53c-11.353 0-17.61 5.877-18.781 17.625v138.03 2.969l49.906-1.469 49.938 1.469v-2.969-138.03c-1.172-11.748-7.428-17.625-18.781-17.625h-62.28" fill="#fff"/><path id="1" d="m155.06 243.05l-.7-78.25" stroke-width="67.1" fill-rule="evenodd" stroke="#fff" fill="#fff" stroke-linecap="round"/><path id="2" d="m79.06 243.05l-.7-78.25" stroke-width="67.1" fill-rule="evenodd" stroke="#fff" fill="#fff" stroke-linecap="round"/></defs><path d="m66.28 1.768c-41.34 0-64.57 21.371-64.57 65.04v450.12c0 40.844 20.895 62.23 62.19 62.23h452.02c41.31 0 62.23-20.315 62.23-62.23v-450.12c0-42.601-20.922-65.04-63.52-65.04-.004 0-448.5-.143-448.35 0z" fill="#111" stroke="#eee" stroke-width="3.408"/><g fill-rule="evenodd" stroke="#fff"><path d="m286.94 44l-252.06 191.91h50.41v307.86h151.24 104.28 147.78v-307.86h50.41l-252.06-191.91z" opacity=".2" fill="#fff" stroke-width="1.241"/><path d="m286.94 34l-252.06 191.91h50.41v317.86h151.24 104.28 147.78v-317.86h50.41l-252.06-191.91z" fill="none" stroke-linejoin="round" stroke-width="20"/></g><g transform="matrix(.87658 0 0 .87658 99.68 266.47)"><use xlink:href="#0"/><path d="m79.06 243.05l-.7-78.25" fill="#fff" fill-rule="evenodd" stroke="#fff" stroke-linecap="round" stroke-width="67.1"/><use xlink:href="#1"/></g><g transform="matrix(.87658 0 0 .87658 266.23 266.47)"><use xlink:href="#0"/><path d="m79.06 243.05l-.7-78.25" fill="#fff" fill-rule="evenodd" stroke="#fff" stroke-linecap="round" stroke-width="67.1"/><use xlink:href="#1"/></g><g transform="translate(20)"><g transform="matrix(.48931 0 0 .48931 107.16 142.64)"><use xlink:href="#0"/><use xlink:href="#2"/><use xlink:href="#1"/></g><g transform="matrix(.48931 0 0 .48931 207.16 142.64)"><use xlink:href="#0"/><use xlink:href="#2"/><use xlink:href="#1"/></g><g transform="matrix(.48931 0 0 .48931 307.16 142.64)"><use xlink:href="#0"/><use xlink:href="#2"/><use xlink:href="#1"/></g></g></svg>
